X:1
T:Title
%%score { ( 1 3 ) | 2 }
L:1/8
M:4/4
K:Ab
V:1 treble nm="Grand Piano"
V:3 treble 
V:2 bass 
V:1
 z4 z2[Q:1/4=100] [CE][CA] | [Ec][Ec][=D_c][E=c] [_DB][CA][CA][CE] | [EG]FDF B2 BA | GFEF GdcB | %4
 [Ec]6 [CE][CA] | [Ec][Ec][=D_c][E=c] [_DB][CA][CA][CE] | [EG]F=EF [Fd]2 [Fd][Fd] | %7
 [Fd][Ec][CA][Ec] cBFG |[M:3/4] [CA]6 |[M:1/4] cd |[M:4/4] eecB BABc | [Gd][Gd][GB]A G2 FE | %12
 [CE][CA][CA][DB] [Ec][EA][Ed][Ec] | [EB]6[K:bass] z2[K:treble] | %14
 [Ec][Ec][=D_c][E=c] [_DB][CA][CA][CE] | [EG]F=EF [Fd]2 [Fd][Fd] | [Fd][Ec][CA][Ec] cBFG | %17
[M:7/4] [CA]6 z2 z2 z4 |] %18
V:2
 z4 z2 [A,,A,][A,,A,] | [A,,A,][A,,A,][A,,A,][A,,A,] [A,,E,][A,,E,][A,,E,][A,,A,] | %2
 [D,A,][D,A,D][D,F,][D,A,D] [D,F,D]2 [D,F,D][D,B,D] | %3
 [E,B,D][E,A,D][E,A,D][E,A,D] [E,B,D][E,B,E][E,A,E][E,G,E] | [A,,A,]6 [A,,A,][A,,A,] | %5
 [A,,A,][A,,A,][A,,A,][A,,A,] [A,,E,][A,,E,][A,,E,][A,,A,] | %6
 [D,A,][D,A,D][D,G,D][D,A,D] [D,A,]2 [D,A,][D,A,] | %7
 [A,,A,][A,,A,][A,,E,][A,,A,] [E,A,E][E,G,D][E,A,D][E,B,D] |[M:3/4] [A,,A,]6 | %9
[M:1/4][K:treble] [A,E][A,B,E] |[M:4/4] [A,CE][A,CA][A,EA][K:bass][A,DE] [A,DE][A,CE][G,B,E][A,E] | %11
 [E,B,][E,B,][E,D][E,C] [E,B,E]2 [E,A,D][E,G,D] | %12
 [A,,A,][A,,E,][A,,E,][A,,E,] [A,,A,][C,A,][B,,G,][A,,A,] | [E,G,]2 E,F, E,D,[C,A,][B,,G,] | %14
 [A,,A,][A,,A,][A,,A,][A,,A,] [A,,E,][A,,E,][A,,E,][A,,A,] | %15
 [D,A,][D,A,D][D,G,D][D,A,D] [D,A,]2 [D,A,][D,A,] | %16
 [A,,A,][A,,A,][A,,E,][A,,A,] [E,A,E][E,G,D][E,A,D][E,B,D] |[M:7/4] [A,,A,]6 z2 z2 z4 |] %18
V:3
 x8 | x8 | x8 | x8 | x8 | x8 | x8 | x8 |[M:3/4] x6 |[M:1/4] x2 |[M:4/4] x8 | x8 | x8 | %13
 z2[K:bass] G,A, G,B,E[K:treble]E | x8 | x8 | x8 |[M:7/4] x14 |] %18

